icons/bookmark.svg

<svg width="24" height="24" viewBox="0 0 24 24" fill="none" xmlns="http://www.w3.org/2000/svg">
<path fill-rule="evenodd" clip-rule="evenodd" d="M4 2C4 1.44772 4.44772 1 5 1H19C19.5523 1 20 1.44772 20 2V22C20 22.3746 19.7907 22.7178 19.4576 22.8892C19.1245 23.0606 18.7236 23.0315 18.4188 22.8137L12 18.2289L5.58124 22.8137C5.27642 23.0315 4.87549 23.0606 4.54242 22.8892C4.20935 22.7178 4 22.3746 4 22V2ZM6 3V20.0568L11.4188 16.1863C11.7665 15.9379 12.2335 15.9379 12.5812 16.1863L18 20.0568V3H6Z" fill="black"/>
</svg>

<svg
  width="24"
  height="24"
  viewBox="0 0 24 24"
  xmlns="http://www.w3.org/2000/svg"
>
  <path
    fill-rule="evenodd"
    clip-rule="evenodd"
    d="M4 2a1 1 0 0 1 1-1h14a1 1 0 0 1 1 1v20a1 1 0 0 1-1.581.814L12 18.229l-6.419 4.585A1 1 0 0 1 4 22V2zm2 1v17.057l5.419-3.87a1 1 0 0 1 1.162 0L18 20.056V3H6z"
  />
</svg>
